!!!COM: Palestrina, Giovanni Perluigi da
!!!OPR: Panem nostrum
!!!OTL: Gloria
**kern	**kern	**kern	**kern	**kern
*Ibass	*Ibarit	*Itenor	*Icalto	*Icant
!Bassus	!Baritone	!Tenor	!Altus	!Cantus
*clefF4	*clefF4	*clefGv2	*clefG2	*clefG2
*k[b-]	*k[b-]	*k[b-]	*k[b-]	*k[b-]
*G:dor	*G:dor	*G:dor	*G:dor	*G:dor
*M4/2	*M4/2	*M4/2	*M4/2	*M4/2
=1	=1	=1	=1	=1
0r	0r	1r	0f	0r
.	.	[1B-	.	.
=2	=2	=2	=2	=2
0r	0r	1B-]	1g	0r
.	.	1c	[1a	.
=3	=3	=3	=3	=3
0r	0r	1.d	2a]	0r
.	.	.	2a	.
.	.	.	2f	.
.	.	2d	2a	.
=4	=4	=4	=4	=4
0r	0r	2B-	2.b-	1r
.	.	2d	.	.
.	.	.	4a	.
.	.	[1e-	4g	[1b-
.	.	.	4f	.
.	.	.	[2g	.
=5	=5	=5	=5	=5
0r	0r	2e-]	4g]	1b-]
.	.	.	4a	.
.	.	2d	1b-	.
.	.	1c	.	1cc
.	.	.	2a	.
=6	=6	=6	=6	=6
0r	0r	4B-	0b-	1.dd
.	.	4A	.	.
.	.	4G	.	.
.	.	4A	.	.
.	.	4B-	.	.
.	.	4c	.	.
.	.	4d	.	2dd
.	.	4e	.	.
=7	=7	=7	=7	=7
0F	0r	2.f	2.a	2cc
.	.	.	.	2a
.	.	4g	4g	.
.	.	2a	2f	1cc
.	.	2f	2a	.
=8	=8	=8	=8	=8
1G	0r	2e	2.g	2cc
.	.	1d	.	2b-
.	.	.	4f	.
[1A	.	.	[1e	2a
.	.	4c	.	[2a
.	.	4B	.	.
=9	=9	=9	=9	=9
2A]	0r	1c	2e]	4a]
.	.	.	.	4a
2A	.	.	2f	2a
2.G	.	[1d	1g	2b-
.	.	.	.	[2dd
4A	.	.	.	.
=10	=10	=10	=10	=10
1B-	0r	1d]	1f	4dd]
.	.	.	.	4cc
.	.	.	.	1b-
1F	.	1c	1f	.
.	.	.	.	2a
=11	=11	=11	=11	=11
2r	0F	1A	1c	2r
2F	.	.	.	2cc
2D	.	2A	2f	2dd
2D	.	2B-	2f	2dd
=12	=12	=12	=12	=12
0C	1G	2.c	4e	4ee
.	.	.	4d	4ff
.	.	.	4e	4gg
.	.	4d	4f	4ff
.	1G	1e	4g	4ee
.	.	.	4f	4dd
.	.	.	4e	4cc
.	.	.	4d	4b-
=13	=13	=13	=13	=13
1.F	2A	1f	2c	2a
.	1A	.	1a	1cc
.	.	1c	.	.
2F	2A	.	2a	2cc
=14	=14	=14	=14	=14
2D	2A	2d	2a	2ff
2D	2A	2d	2a	2ff
1F	1A	1c	1f	1ff
=15	=15	=15	=15	=15
2C	2G	2c	2g	2ee
1C	1G	1e	1g	1cc
2C	2G	2c	2e	2cc
=16	=16	=16	=16	=16
1BB-	1B-	1f	1d	1dd
1BB-	1B-	1d	1f	1b-
=17	=17	=17	=17	=17
2F	2A	2c	2f	2cc
2F	2A	2c	2f	2cc
2D	2A	2F	2f	2dd
2F	2A	2A	2f	2cc
=18	=18	=18	=18	=18
1C	1G	1c	2e	1cc
.	.	.	2.f	.
1C	1G	1c	.	1g
.	.	.	8e	.
.	.	.	8d	.
.	.	.	2e	.
=19	=19	=19	=19	=19
1F	0F	1c	1f	1a
[1BB-	.	[1B-	2r	[1dd
.	.	.	[2f	.
=20	=20	=20	=20	=20
2BB-]	0r	2B-]	2f]	2dd]
2BB-	.	2B-	2f	2dd
2F	.	2A	2f	2cc
[2F	.	[2f	[2a	[2cc
=21	=21	=21	=21	=21
2F]	0r	2f]	2a]	2cc]
2G	.	2d	2g	2b-
2A	.	1c	1e	2a
[2c	.	.	.	2g
=22	=22	=22	=22	=22
2c]	0G	0d	0g	0dd
4B	.	.	.	.
4A	.	.	.	.
1B	.	.	.	.
=23	=23	=23	=23	=23
1c	0F	2f	2a	2r
.	.	1c	1a	1ff
1r	.	.	.	.
.	.	[2d	2a	2ff
=24	=24	=24	=24	=24
0r	1G	2d]	0g	1ee
.	.	2.c	.	.
.	1G	.	.	1dd
.	.	4B-	.	.
.	.	2B-	.	.
=25	=25	=25	=25	=25
2r	1.A	1c	2e	2.cc
2.F	.	.	2.a	.
.	.	.	.	4cc
.	.	1f	.	2cc
4F	.	.	4a	.
2D	2A	.	2f	[2dd
=26	=26	=26	=26	=26
2.E	1G	2e	0g	4dd]
.	.	.	.	4cc
.	.	2e	.	1cc
4F	.	.	.	.
1G	1G	1d	.	.
.	.	.	.	2b
=27	=27	=27	=27	=27
0C	0G	1c	1e	0cc
.	.	2r	2r	.
.	.	[2e-	[2g	.
=28	=28	=28	=28	=28
0r	0r	4e-]	4g]	2r
.	.	4e-	4g	.
.	.	2e-	2g	2.b-
.	.	2d	2f	.
.	.	.	.	4b-
.	.	2B-	2d	2b-
=29	=29	=29	=29	=29
0r	0r	2.d	2.f	2a
.	.	.	.	2f
.	.	4e	4e	.
.	.	2f	2d	2a
.	.	2e	2c	2cc
=30	=30	=30	=30	=30
2r	1G	1d	0g	2.b-
2.B-	.	.	.	.
.	.	.	.	4cc
.	2G	1d	.	2.dd
4B-	.	.	.	.
2B-	2G	.	.	.
.	.	.	.	4ee
=31	=31	=31	=31	=31
2A	1F	2r	0a	1ff
2F	.	1f	.	.
2A	1F	.	.	1cc
[2c	.	2e	.	.
=32	=32	=32	=32	=32
2c]	1G	0d	1g	0r
4B	.	.	.	.
4A	.	.	.	.
1B	1G	.	1g	.
=33	=33	=33	=33	=33
1c	1A	1c	1e	2r
.	.	.	.	1cc
1F	1A	1r	1f	.
.	.	.	.	2a
=34	=34	=34	=34	=34
0r	1G	2r	1d	1b-
.	.	1d	.	.
.	1G	.	2.b-	2g
.	.	2B-	.	[2dd
.	.	.	4a	.
=35	=35	=35	=35	=35
0r	1G	1e-	0g	2dd]
.	.	.	.	2.cc
.	1G	2d	.	.
.	.	.	.	4b-
.	.	2d	.	2b-
=36	=36	=36	=36	=36
1r	0r	2.c	2.e-	4a
.	.	.	.	4g
.	.	.	.	1g
.	.	4B-	4d	.
2r	.	2A	2c	.
2c	.	2A	2c	2f#
=37	=37	=37	=37	=37
2c	0r	2G	1d	1g
2B-	.	1g	.	.
2c	.	.	1r	1r
2d	.	2f	.	.
=38	=38	=38	=38	=38
2G	0r	2g	0r	0r
2.d	.	2a	.	.
.	.	2d	.	.
4c	.	.	.	.
4B-	.	[2g	.	.
4A	.	.	.	.
=39	=39	=39	=39	=39
1G	0r	4g]	0r	0r
.	.	4f	.	.
.	.	4e-	.	.
.	.	4d	.	.
2A	.	2c	.	.
[2B-	.	2d	.	.
=40	=40	=40	=40	=40
2B-]	0r	2c	0r	0r
2A	.	2c	.	.
1B-	.	1d	.	.
=41	=41	=41	=41	=41
0E-	1B-	0G	0g	1b-
.	1c	.	.	1g
=42	=42	=42	=42	=42
1D	0d	1A	1.f	0dd
1BB-	.	1B-	.	.
.	.	.	4e-	.
.	.	.	4d	.
=43	=43	=43	=43	=43
0C	1c	1G	0g	2.ee-
.	.	.	.	4dd
.	1e-	1c	.	4cc
.	.	.	.	4b-
.	.	.	.	[2cc
=44	=44	=44	=44	=44
2.D	1d	1F	0f	4cc]
.	.	.	.	4b-
.	.	.	.	1b-
4E	.	.	.	.
1F	1c	2r	.	.
.	.	[2f	.	2a
=45	=45	=45	=45	=45
2BB-	1B-	4f]	1d	2b-
.	.	4f	.	.
2.B-	.	2f	.	2.dd
.	1r	2d	2r	.
4B-	.	.	.	4dd
2B-	.	2B-	[2f	2dd
=46	=46	=46	=46	=46
2A	1r	2c	4f]	1cc
.	.	.	4f	.
2F	.	2.c	2f	.
2A	1c	.	2e	1a
.	.	4d	.	.
2A	.	4e	2c	.
.	.	4f	.	.
=47	=47	=47	=47	=47
1G	1B-	1g	2d	1r
.	.	.	2e	.
1F	1c	[1a	4f	2r
.	.	.	4c	.
.	.	.	[2cc	[2ff
=48	=48	=48	=48	=48
0r	1d	2a]	2cc]	4ff]
.	.	.	.	4ff
.	.	4g	2b	2ff
.	.	4f	.	.
.	[1c	2.g	2.cc	2ee
.	.	.	.	2cc
.	.	4f	8b-	.
.	.	.	8a	.
=49	=49	=49	=49	=49
1r	1c]	4e	2g	2ee
.	.	4d	.	.
.	.	2c	1cc	2ee
2r	1r	1g	.	1dd
2G	.	.	2b	.
=50	=50	=50	=50	=50
2E	1r	2r	1cc	2cc
1F	.	2a	.	2.cc
.	1c	2f	2a	.
.	.	.	.	4cc
2E	.	[2g	2g	2cc
=51	=51	=51	=51	=51
1D	1B	4g]	1r	1dd
.	.	4f	.	.
.	.	2f	.	.
1C	1c	4e	2r	1ee
.	.	4f	.	.
.	.	4g	2cc	.
.	.	4e	.	.
=52	=52	=52	=52	=52
2r	1d	2f	2a	2r
2G	.	2g	2.b-	2gg
2A	1c	2r	.	2ee
.	.	.	4a	.
2F	.	2f	2a	[2ff
=53	=53	=53	=53	=53
0C	[0c	2g	2g	2ff]
.	.	2g	2c	4ee
.	.	.	.	4dd
.	.	4g	2r	4ee
.	.	4f	.	4dd
.	.	4e	2g	4cc
.	.	4d	.	4b-
=54	=54	=54	=54	=54
0F	1c_	4c	2f	4a
.	.	4B-	.	4g
.	.	4A	2c	2f
.	.	4G	.	.
.	1c_	1F	1f	1a
=55	=55	=55	=55	=55
0C	0c]	0G	0e	0g
=56	=56	=56	=56	=56
0F	0r	0c	1r	0a
.	.	.	[1f	.
=57	=57	=57	=57	=57
1D	0r	1d	1f]	1b-
1C	.	1e	1g	[1cc
=58	=58	=58	=58	=58
4F	0r	2c	1a	1cc]
4G	.	.	.	.
4A	.	2.f	.	.
4B-	.	.	.	.
1c	.	.	1g	1cc
.	.	8e	.	.
.	.	8d	.	.
.	.	2e	.	.
=59	=59	=59	=59	=59
1.B-	0r	0f	1.b-	1.dd
2F	.	.	2a	2cc
=60	=60	=60	=60	=60
1G	0r	1d	1g	1b-
[1D	.	2d	2f	1a
.	.	[2f	[2a	.
=61	=61	=61	=61	=61
0D]	0r	2f]	2a]	2r
.	.	2d	2b-	1ff
.	.	2.f	[1a	.
.	.	.	.	2dd
.	.	4e	.	.
=62	=62	=62	=62	=62
0r	0r	2.d	2a]	2.ff
.	.	.	2f	.
.	.	4c	.	4ee
.	.	2B-	2g	2dd
.	.	2c	[2a	2cc
=63	=63	=63	=63	=63
0r	0r	1e-	4a]	2b-
.	.	.	4g	.
.	.	.	1g	4a
.	.	.	.	4g
.	.	1d	.	1a
.	.	.	2f#	.
=64	=64	=64	=64	=64
0E-	0r	1B-	1g	1g
.	.	4G	1g	1b-
.	.	4A	.	.
.	.	[2B-	.	.
=65	=65	=65	=65	=65
1C	0r	4B-]	1e-	1cc
.	.	4A	.	.
.	.	4A	.	.
.	.	8G	.	.
.	.	8A	.	.
2BB-	.	1B-	2.d	1dd
[2B-	.	.	.	.
.	.	.	4e-	.
=66	=66	=66	=66	=66
2B-]	0F	0c	0f	1cc
4A	.	.	.	.
4G	.	.	.	.
1A	.	.	.	2.ff
.	.	.	.	4ee-
=67	=67	=67	=67	=67
2.B-	1G	2r	2r	4dd
.	.	.	.	4cc
.	.	2G	2b-	1dd
4A	.	.	.	.
2G	2G	2d	2b-	.
2C	2G	2e	2cc	[2cc
=68	=68	=68	=68	=68
1F	1A	0f	[0a	2cc]
.	.	.	.	2.ff
1D	1A	.	.	.
.	.	.	.	4ee
.	.	.	.	[2dd
=69	=69	=69	=69	=69
1r	0A	1e	1a]	2dd]
.	.	.	.	2cc#
1D	.	1d	1f	1dd
=70	=70	=70	=70	=70
1E-	2G	1B-	2r	2.gg
.	1G	.	1g	.
.	.	.	.	4ff
1C	.	2.e-	.	2ee-
.	2G	.	2g	2cc
.	.	4e-	.	.
=71	=71	=71	=71	=71
2G	2B-	2d	2g	2dd
1G	1B-	1d	1b-	1dd
2G	2B-	2B-	2g	2dd
=72	=72	=72	=72	=72
2F	2A	2c	2.a	2ff
2D	2A	2d	.	2ff
.	.	.	4a	.
2F	2A	2c	2a	4f
.	.	.	.	4g
2F	2A	2c	[2f	4a
.	.	.	.	4b-
=73	=73	=73	=73	=73
0C	0G	0c	2f]	2cc
.	.	.	4e	2g
.	.	.	4d	.
.	.	.	2e	1cc
.	.	.	2e	.
=74	=74	=74	=74	=74
2F	0F	2c	2f	2cc
2F	.	2A	2c	2cc
1BB-	.	1B-	1f	1dd
=75	=75	=75	=75	=75
1F	0r	2A	2f	2cc
.	.	2F	2a	2cc
1r	.	2.c	2.g	2.ee-
.	.	4c	4g	4ee-
=76	=76	=76	=76	=76
0r	0r	1d	2f	1dd
.	.	.	2.b-	.
.	.	1f	.	1cc
.	.	.	8a	.
.	.	.	8g	.
.	.	.	2a	.
=77	=77	=77	=77	=77
1.E-	1.G	0B-	2b-	2b-
.	.	.	1g	1ee-
2E-	2G	.	2g	2ee-
=78	=78	=78	=78	=78
2BB-	1F	2r	2b-	1dd
2BB-	.	1f	2b-	.
1F	1F	.	1a	2cc
.	.	2f	.	[2dd
=79	=79	=79	=79	=79
1C	1G	2e	0g	4dd]
.	.	.	.	4cc
.	.	2e	.	1cc
1r	1G	1d	.	.
.	.	.	.	2b
=80	=80	=80	=80	=80
2.F	1.A	1c	2.f	1cc
4F	.	.	4f	.
2F	.	2.c	2f	1r
2A	2A	.	2e	.
.	.	4c	.	.
=81	=81	=81	=81	=81
4B-	2G	2d	0g	1r
4A	.	.	.	.
4G	2G	2d	.	.
4F	.	.	.	.
[1E-	2G	[1e-	.	2.b-
.	2G	.	.	.
.	.	.	.	4b-
=82	=82	=82	=82	=82
2E-]	1G	2e-]	1g	2b-
2BB-	.	2d	.	2dd
[1C	1G	2.c	1g	4ee-
.	.	.	.	4dd
.	.	.	.	4cc
.	.	4d	.	4b-
=83	=83	=83	=83	=83
1C]	0r	1e-	1g	2cc
.	.	.	.	2cc
1G	.	2.d	2r	4b-
.	.	.	.	4a
.	.	.	2d	4b-
.	.	4c	.	4cc
=84	=84	=84	=84	=84
0r	0r	4B-	2f	4dd
.	.	4A	.	4cc
.	.	2G	2g	2b-
.	.	1d	2g	2a
.	.	.	2f#	2a
=85	=85	=85	=85	=85
0r	0G	2d	0g	2b
.	.	2e	.	2cc
.	.	2d	.	2cc
.	.	2d	.	2b
=86	=86	=86	=86	=86
2r	0F	2f	1a	0cc
2F	.	2f	.	.
1A	.	1f	1a	.
=87	=87	=87	=87	=87
2B	1G	2d	2g	0r
2c	.	2g	2e	.
2c	1G	2.g	2.d	.
2B	.	.	.	.
.	.	4f	4d	.
=88	=88	=88	=88	=88
1c	0A	1e	2c	2r
.	.	.	2A	2cc
1r	.	1c	1a	2ee
.	.	.	.	2ff
=89	=89	=89	=89	=89
0r	0G	2d	2b	1gg
.	.	2e	2cc	.
.	.	1d	2cc	2gg
.	.	.	2b	2gg
=90	=90	=90	=90	=90
0C	0G	2.g	1cc	2ee
.	.	.	.	2.gg
.	.	4f	.	.
.	.	4e	2r	.
.	.	4d	.	4ff
.	.	4c	[2cc	4ee
.	.	4B-	.	4dd
=91	=91	=91	=91	=91
0F	0r	4A	4cc]	2.cc
.	.	4G	4b-	.
.	.	4A	4a	.
.	.	4B-	4g	4b-
.	.	2c	2.f	2a
.	.	[2d	.	2a
.	.	.	4e	.
=92	=92	=92	=92	=92
1G	0r	4d]	2d	4b-
.	.	4c	.	4cc
.	.	2B-	2d	4dd
.	.	.	.	4b-
1C	.	1e-	1g	1cc
=93	=93	=93	=93	=93
1G	0r	1d	1g	1b
2.D	.	[1f	2.a	1dd
4E	.	.	4g	.
=94	=94	=94	=94	=94
4F	0r	1f]	4a	1cc
4G	.	.	4b-	.
4A	.	.	1cc	.
4B-	.	.	.	.
2c	.	2e	.	2ee
[2d	.	2d	[2a	[2ff
=95	=95	=95	=95	=95
2d]	0r	2f	2a]	4ff]
.	.	.	.	4ee
2G	.	4g	2b-	1dd
.	.	4f	.	.
2A	.	4e	[1a	.
.	.	4d	.	.
2A	.	[2e	.	2cc#
=96	=96	=96	=96	=96
4D	1F	2e]	2a]	1dd
4E	.	.	.	.
4F	.	1d	2a	.
4D	.	.	.	.
1E	1G	.	1g	2r
.	.	2c#	.	2gg
=97	=97	=97	=97	=97
1D	1A	1d	2r	2ff
.	.	.	2dd	2dd
1r	1A	1r	2cc	2ee
.	.	.	2a	2cc
=98	=98	=98	=98	=98
0r	1G	2r	2b-	2dd
.	.	2g	1b-	2.ee-
.	1B-	2f	.	.
.	.	.	.	4dd
.	.	2d	2g	[2dd
=99	=99	=99	=99	=99
0r	1A	2e	2a	4dd]
.	.	.	.	4cc
.	.	2c	2f	1cc
.	1G	1d	1g	.
.	.	.	.	2b-
=100	=100	=100	=100	=100
0r	1F	2.f	2a	4cc
.	.	.	.	4b-
.	.	.	1cc	4a
.	.	4e	.	4g
.	1r	1d	.	2f
.	.	.	2b	2ff
=101	=101	=101	=101	=101
2r	1r	2c	2cc	2ee
2c	.	2e	2g	2cc
2B-	1G	1d	1b-	2dd
2G	.	.	.	2b-
=102	=102	=102	=102	=102
2A	1F	2r	2.a	2cc
2F	.	2f	.	1a
.	.	.	4b-	.
2C	1G	2e	1cc	.
2E-	.	2c	.	[2g
=103	=103	=103	=103	=103
1D	1A	2d	1r	2g]
.	.	2d	.	2f#
2G	1G	2B-	2r	1g
2C	.	2e-	2cc	.
=104	=104	=104	=104	=104
2G	1G	2d	2b-	2r
2E-	.	2.c	2g	2gg
1D	1r	.	2a	2ff
.	.	4B-	.	.
.	.	4B-	2f	2dd
.	.	4G	.	.
=105	=105	=105	=105	=105
2C	1r	2c	1g	2ee-
2c	.	2e-	.	2cc
2B-	1G	1d	1g	2dd
2G	.	.	.	2b-
=106	=106	=106	=106	=106
2A	1F	2r	0c	2cc
2F	.	2f	.	2.a
2C	1G	2e-	.	.
.	.	.	.	4g
2E-	.	2c	.	[2g
=107	=107	=107	=107	=107
1D	1A	2d	2r	2g]
.	.	2A	2.d	2f#
2.d	1G	2B-	.	1g
.	.	.	4c	.
.	.	2d	4B-	.
4c	.	.	4A	.
=108	=108	=108	=108	=108
4B-	[0G	4d	2G	2.dd
4A	.	4c	.	.
2.G	.	4B-	2d	.
.	.	4A	.	4cc
.	.	2G	2.g	4b-
4F	.	.	.	4a
4E-	.	[2g	.	2g
4D	.	.	4f	.
=109	=109	=109	=109	=109
1.C	0G]	4g]	4e-	2.gg
.	.	4f	4d	.
.	.	4e-	1c	.
.	.	4d	.	4ff
.	.	2c	.	2ee-
2G	.	2d	2B	2dd
=110	=110	=110	=110	=110
0C	[0G	0e-	1c	0cc
.	.	.	1g	.
=111	=111	=111	=111	=111
0G	0G]	0d	0g	0b
==	==	==	==	==
*-	*-	*-	*-	*-
!!!CDT: 1525/^1526/-1594/2/2
!!!OCY: Italia
!!!AGN: Mass (Tenor)
!!!AST: renaissance, vocal
!!!ASW: Prayer
!!!PWK: Masses, Book 10
!!!RNB: Cadence finals: C
!!!YOR: Le Opere Complete, v. 27, p. 226
!!!YOO: Rome, Italy: Fratelli Scalera
!!!END: 1992//
!!!EED: John Miller
!!!YEC: Copyright 2000, John Miller
!!!YEN: United States of America
!!!YEM: Rights to all derivative electronic formats reserved.
!!!YEM: Refer to licensing agreement for further details.
!!!YEM: This file must be accompanied by the licensing agreement.
!!!YEM: A copy of the licensing agreement may be found at http://www.music-cog.ohio-state.edu/HumdrumDatabases/Palestrina/license.txt
!!!EMD: converted to Humdrum by Bret Aarden
